X:0575
T:Rondo D'Henry 4th.
M:C
L:1/8
Q:1/2=104
I: :: ||
Z:Jack Campin * www.campin.me.uk * 2009
K:G
g2g2|d2d2 e2ce|   d2d2    c2Ac|B2g2 A2f2|g4:|
d2g2|f2g2 a2c2|   B2c2    d4  |e2d2 c2B2|A3G
c2B2|A2GG e2d2|{d}c2B2 {a}g2fe|d2B2 c2A2|G4 \
                       {a}g2fe|d2g2 a2f2|g4|]

